src/images/self-hosted-icon.svg

<svg xmlns="http://www.w3.org/2000/svg" width="119" height="119" fill="none" viewBox="0 0 119 119"><rect width="119" height="119" fill="#769FD1" rx="8"/><path fill="#232D4F" fill-rule="evenodd" d="M57.8547 56.5804L104.068 51.5249L108.837 56.5804V103.192H57.8479L57.8547 56.5804Z" clip-rule="evenodd"/><path fill="#4C5986" fill-rule="evenodd" d="M53.0894 51.5156H104.079V98.1279H53.0894V51.5156Z" clip-rule="evenodd"/><path fill="#161E3A" fill-rule="evenodd" d="M53.0835 98.1193L57.8985 103.349L108.859 103.183L104.1 98.1106L53.0835 98.1193Z" clip-rule="evenodd"/><path fill="#fff" fill-rule="evenodd" d="M58.8513 57.1583H98.8603V92.4548H58.8513V57.1583Z" clip-rule="evenodd"/><path fill="#232D4F" fill-rule="evenodd" d="M98.8846 57.1245V59.0891L61.2956 59.1306L58.7722 57.1343L98.8846 57.1245Z" clip-rule="evenodd"/><path fill="#769FD1" fill-rule="evenodd" d="M58.8196 57.1453L58.84 92.4724L61.1964 92.4888L61.3099 59.1153L58.8196 57.1453Z" clip-rule="evenodd"/><path fill="#C14F0D" fill-rule="evenodd" d="M43.3765 42.2318L82.5134 38.2361L86.8571 42.2318V82.0686H43.3765L38.9419 78.038L43.3765 42.2318Z" clip-rule="evenodd"/><path fill="#F96132" fill-rule="evenodd" d="M39.0288 38.3311H82.5094V78.168H39.0288V38.3311Z" clip-rule="evenodd"/><path fill="#C14F0D" fill-rule="evenodd" d="M27.6291 30.4719L66.7659 26.4751L71.1097 30.4708V70.3076H27.6291L23.2002 66.2781L27.6291 30.4719Z" clip-rule="evenodd"/><path fill="#DC9300" fill-rule="evenodd" d="M27.6291 30.4719L66.7659 26.4751L71.1097 30.4708V70.3076H27.6291L23.2002 66.2781L27.6291 30.4719Z" clip-rule="evenodd"/><path fill="#F7A501" fill-rule="evenodd" d="M23.2808 26.571H66.7614V66.408H23.2808V26.571Z" clip-rule="evenodd"/><path fill="#36426B" fill-rule="evenodd" d="M14.4357 17.9957L53.5715 14L57.9141 17.9957V57.8325H14.4357L10 53.8019L14.4357 17.9957Z" clip-rule="evenodd"/><path fill="#68749E" fill-rule="evenodd" d="M10.0879 14.095H53.5719V53.9319H10.0879V14.095Z" clip-rule="evenodd"/></svg>

<svg fill="none" viewBox="0 0 119 119"><rect width="119" height="119" fill="#769FD1" rx="8"/><path fill="#232D4F" fill-rule="evenodd" d="M57.855 56.58l46.213-5.055 4.769 5.055v46.612h-50.99l.008-46.612z" clip-rule="evenodd"/><path fill="#4C5986" fill-rule="evenodd" d="M53.09 51.516h50.989v46.612h-50.99V51.516z" clip-rule="evenodd"/><path fill="#161E3A" fill-rule="evenodd" d="M53.084 98.12l4.814 5.229 50.961-.166-4.759-5.072-51.016.008z" clip-rule="evenodd"/><path fill="#fff" fill-rule="evenodd" d="M58.851 57.158h40.01v35.297H58.85V57.158z" clip-rule="evenodd"/><path fill="#232D4F" fill-rule="evenodd" d="M98.885 57.124v1.965l-37.59.042-2.523-1.997 40.113-.01z" clip-rule="evenodd"/><path fill="#769FD1" fill-rule="evenodd" d="M58.82 57.145l.02 35.327 2.356.017.114-33.374-2.49-1.97z" clip-rule="evenodd"/><path fill="#C14F0D" fill-rule="evenodd" d="M43.377 42.232l39.136-3.996 4.344 3.996v39.837h-43.48l-4.435-4.031 4.434-35.806z" clip-rule="evenodd"/><path fill="#F96132" fill-rule="evenodd" d="M39.029 38.331h43.48v39.837H39.03V38.331z" clip-rule="evenodd"/><path fill="#C14F0D" fill-rule="evenodd" d="M27.63 30.472l39.136-3.997 4.344 3.996v39.837H27.63l-4.43-4.03 4.43-35.806z" clip-rule="evenodd"/><path fill="#DC9300" fill-rule="evenodd" d="M27.63 30.472l39.136-3.997 4.344 3.996v39.837H27.63l-4.43-4.03 4.43-35.806z" clip-rule="evenodd"/><path fill="#F7A501" fill-rule="evenodd" d="M23.28 26.571h43.481v39.837h-43.48V26.571z" clip-rule="evenodd"/><path fill="#36426B" fill-rule="evenodd" d="M14.436 17.996L53.572 14l4.342 3.996v39.837H14.436L10 53.802l4.436-35.806z" clip-rule="evenodd"/><path fill="#68749E" fill-rule="evenodd" d="M10.088 14.095h43.484v39.837H10.088V14.095z" clip-rule="evenodd"/></svg>
